X:1
T:Send Them, O Lord
T:Send Them, O Lord
T:James E. Stewart, arranged by C. W. and E. M.
T:J. Wakefield MacGill (1829-1902)
T:Public Domain Courtesy of the Cyber Hymnal™
T:Public Domain Courtesy of the Cyber Hymnal™
T:Public Domain Courtesy of the Cyber Hymnal™
C:James E. Stewart, arranged by C. W. and E. M.
Z:Public Domain
Z:Courtesy of the Cyber Hymnal™
%%score ( 1 2 ) ( 3 4 ) ( 5 6 )
L:1/8
Q:1/4=110
M:4/4
K:Eb
V:1 treble 
V:2 treble 
V:3 treble 
V:4 treble 
V:5 bass 
V:6 bass 
V:1
 G2 G>G A3 =A | c3 B G3 z | E2 D>E G3 F | F6 z2 | G2 G>G A3 =A | c3 B E3 F | G3 A G3 F | E6 z2 | %8
w: 1.~Lord, Thou hast gone two|thou- sand years,|Yet they have nev- er|heard|Tid- ings of Thy re-|deem- ing love, Or|seen Thy ho- ly|Word.|
w: 2.~Once o’er this bright and|fa- vored land|Lay there the pall of|night—|Gloom of a sav- age|hea- then- dom, With|foul and blood- y|rite.|
w: 3.~So would we do for|o- ther lands|Ly- ing in deep- est|death,|Sink- ing to meet their|aw- ful doom With|ev- ery pass- ing|breath.|
 G2 G>G e3 e | e3 d G3 z | c3 c ccdc | (=B4 _B3) z |!mf! e2 d>c B2 G2 | F2 A2 !fermata!d3 c | %14
w: Sleep- ing and still Thy|Church has lain,|Heed- less of the high com-|mand— *|“Go forth to ev- ery|tribe and tongue, To|
w: Brave ones a- rose and|came to us,|Bring- ing o’er the tid- ings|sweet, *|Then cru- el men bent|low to Thee, And|
w: Hear, Je- sus, hear our|fer- vent prayer,|Wake Thy sleep- ing Church to|know *|Her hour of pri- vi-|lege and power, And|
 B2"^riten." (EA) G3 F x | E6 z2 ||"^Refrain" [Ec]2 [Ec]>[Ac] B3 [GB] | A2 [DA]2 [EG]4 | %18
w: ev- ery * dis- tant|land.”|||
w: wor- shipped * at Thy|feet.|Send them, O Lord, to|speak of Thee,|
w: bid her * rise and|go.|||
 [Ec]3 [Ac] [=Ac][Ac][Ad][Ae] | d8 | [Ge]2 [Bd]>[Ac] [GB]2 [EG]2 | F2 [FA]2 [Ad]3 [Fc] | %22
w: ||||
w: Tell- ing of Thy love and|grace;|Send them, O Lord, to|tell of Thee, To|
w: ||||
 [GB]2 (E[FA]) G3 (z F) | [B,E]6 z2 |] %24
w: ||
w: ev- ery * tribe *||
w: ||
V:2
 x8 | x8 | x8 | x8 | x8 | x8 | x8 | x8 | x8 | x8 | x8 | x8 | x8 | x8 | x9 | x8 || x4 (G2 E) x | %17
 (FE) x6 | x8 | (B4 A4) | x8 | F2 x6 | x2 E E2 D2 x2 | x8 |] %24
V:3
 z (B,[EG]B,) z (B,[DA]B,) | z (B,[EB]B,) z (B,[EG]B,) | z (B,[EG])B, z (C[E=A]C | DFB=A _AFDB,) | %4
 z (B,[EG]B,) z (B,[DA]B,) | z (B,[EB]B,) z (CA[_CF]) | z (B,[EG]B,) z (B,[DA]B, | %7
 [EG]B,G,B, [G,E]2) z2 | z ([CEG][CEG][CEG]) z ([CEG][CEG][CEG]) | %9
 z ([=B,A_B][B,A=B][B,AB]) z ([B,AB][B,AB][B,AB]) | z ([CEG][CEG][CEG]) z ([CEG][CEG][CEG]) | %11
 z ([=B,DG][B,DG][B,DG]) z ([B,DG][B,DG][B,DG]) | z ([B,EG][B,EG][B,EG]) z ([B,EB][B,EB][B,EB]) | %13
 z ([CFA][CFA][CFA] [CE^F]3) z | z ([B,EG][G,B,E][CEA] G3) (z F | E3) ([B,G] [G,E]2) z2 || x8 | %17
 x8 | x8 | x8 | x8 | x8 | x9 | x8 |] %24
V:4
 x8 | x8 | x8 | x8 | x8 | x8 | x8 | x8 | x8 | x8 | x8 | x8 | x8 | x8 | x4 [B,E]2 [A,D]2 x | %15
 G, B, G, x5 || x8 | x8 | x8 | x8 | x8 | x8 | x9 | x8 |] %24
V:5
 [E,,E,]4 [F,,F,]4 | [G,,G,]4 [E,,E,]4 | [E,,E,]4 [C,,C,]2 [F,,F,]2 | [B,,,B,,]6 z2 | %4
 [E,,E,]4 [F,,F,]4 | [G,,G,]4 [A,,A,]4 | [B,,,B,,]4 [B,,,B,,]4 | [E,,E,]6 z2 | %8
 [C,,C,]3 z [C,,C,]3 z | [D,,D,]3 z [G,,,G,,]3 z | [C,,C,]3 z [A,,,A,,]3 z | %11
 [G,,,G,,]4 [F,,,F,,]4 | [E,,,E,,]4 [G,,,G,,]4 | [A,,,A,,]4 !fermata![=A,,,=A,,]3 z | %14
 [B,,,B,,]4 [B,,,B,,]2 [B,,,B,,]2 x | [E,,E,]4 [E,,E,]2 z2 || %16
 [A,,A,]2 [A,C]>[A,E] [E,E]2 [G,B,][E,F] | [F,C]2 [B,,B,]2 [E,B,]4 | %18
 ([A,,A,]2 [A,C])[A,E] [F,E][F,E][F,D][F,C] | z4 F4 | [CE]2 [G,E]>[A,E] [E,E]2 [G,B,]2 | %21
 [A,C]2 [F,C]2 F3 [A,D] | [G,E]2 C2 B,3 z A, | [E,G,]6 z2 |] %24
V:6
 x8 | x8 | x8 | x8 | x8 | x8 | x8 | x8 | x8 | x8 | x8 | x8 | x8 | x8 | x9 | x8 || x8 | x8 | x8 | %19
 B,8 | x8 | x4 (B,,2 B,) x | x2 (A,F,) B,2 B,,2 x | x8 |] %24

